resources/icons/toolwindows/notificationsNew_dark.svg

<svg xmlns="http://www.w3.org/2000/svg" width="13" height="13" viewBox="0 0 13 13">
    <path d="M1,10c0,-1.657 1.343,-3 3,-3l5,0c1.657,0 3,1.343 3,3l-11,0Z" style="fill:#f0a732;fill-rule:nonzero;"/>
    <path d="M8.333,11c0,1.105 -0.82,2 -1.833,2c-1.012,0 -1.833,-0.895 -1.833,-2l3.666,0Z" style="fill:#f0a732;fill-rule:nonzero;"/>
    <path d="M10.772,5.99c-0.09,0.006 -0.18,0.01 -0.272,0.01c-1.933,0 -3.5,-1.567 -3.5,-3.5c0,-0.507 0.108,-0.989 0.302,-1.425c-0.253,-0.049 -0.515,-0.075 -0.781,-0.075c-2.021,0 -3.733,1.485 -4.019,3.485l-0.502,3.515l9.083,0l-0.311,-2.01Z" style="fill:#f0a732;fill-rule:nonzero;"/>
    <circle cx="10.5" cy="2.5" r="2.5" style="fill:#3592c4;"/>
</svg>

<svg xmlns="http://www.w3.org/2000/svg" width="13" height="13" viewBox="0 0 13 13">
    <path d="M1,10C1,8.343 2.343,7 4,7L9,7C10.657,7 12,8.343 12,10L1,10Z" style="fill:#f0a732;fill-rule:nonzero;"/>
    <path d="M8.333,11C8.333,12.105 7.513,13 6.5,13C5.488,13 4.667,12.105 4.667,11C5.583,11 7.417,11 8.333,11Z" style="fill:#f0a732;fill-rule:nonzero;"/>
    <path d="M10.772,5.99C10.682,5.996 10.592,6 10.5,6C8.567,6 7,4.433 7,2.5C7,1.993 7.108,1.511 7.302,1.075C7.049,1.026 6.787,1 6.521,1C4.5,1 2.788,2.485 2.502,4.485L2,8L11.083,8L10.772,5.99Z" style="fill:#f0a732;"/>
    <circle cx="10.5" cy="2.5" r="2.5" style="fill:#3592c4;"/>
</svg>
